X:1746
T:Rondino
C:Jean Philippe Rameau
O:France
Z:Transcribed by Frank Nordberg - http://www.musicaviva.com
F:http://abc.musicaviva.com/tunes/rameau-jean-philippe/rameau-rondino01/rameau-rondino01-pno2.abc
V:1 Program 1 6 %Harpsichord
V:2 Program 1 6 bass %Harpsichord
M:3/4
L:1/8
K:Am
V:1
edceBe|ceBeAe|fedcBA|^G2^FGE2|
V:2
A,,2A,2^G,2|A,2B,2C2|D2E2F2|E2B,2D2|
%
V:1
A=G=FAB^G|cBAcdB|cdd3c/d/|e6|
V:2
C4B,2|A,4^G,2|A,2-[A,4F,4]|E,F,E,D,C,B,,|
%
V:1
|:edceBe|ceBeAe|fedcBA|^G2^FGE2|
V:2
|:A,,2A,2^G,2|A,2B,2C2|D2E2F2|E2B,2D2|
%
V:1
A=G=FAB^G|cBAcdB|cdd3c/d/|e-[e-B-][e-B-^G-][e-B-G-E-][e2B2G2E2]||
V:2
C4B,2|A,4^G,2|A,2-[A,4F,4]|E,4-[E,2E,,2]||
%
V:1
=gfegdg|^cgBgAB|^cdefge|{e}f3ed2|
V:2
z2z2GF|E2D2^C2|B,2A,2A,,2|D,2-[D,2-A,,2][D,2D,,2]|
%
V:1
fedfcf|BfAfGA|Bcdefd|{d}e3dc2:|
V:2
z2 z2 FE|D2C2B,2|A,2G,2G,,2|C,2-[C,2-G,,2][C,2C,,2]:|
%
V:1
edceBe|ce^GeAe|dc {c}B3A|A-[A-E-][A4E4C4]|]
V:2
z2 z2 ^G,2|A,2B,2C,2|D2E2E,2|z2 z A,,-[A,,2A,,,2]|]
W:
W:
W:  From Musica Viva - http://www.musicaviva.com
W:  the Internet center for free sheet music downloads.

